X:1
T:Trio Sonata No.1 in D-major from " 6 Sonatas for Violin, Viola da Gamba and Continuo "
T:Trio Sonata No.1 in D-major
T:Philipp Heinrich Erlebach (1657 — 1714)
T:from " 6 Sonatas for Violin, Viola da Gamba and Continuo " Transcribed for 2 Recorders and Basso continuo in F-major from IMSLP#436801 PDF File
T:Public Domain
T:Public Domain
T:Public Domain
T:Public Domain
T:Public Domain
T:Public Domain
T:Public Domain
T:Public Domain
T:Public Domain
C:Philipp Heinrich Erlebach (1657 — 1714)
Z:Public Domain
%%score [ 1 ( 2 3 ) ( 4 5 ) ] { ( 6 7 ) | ( 8 9 ) }
L:1/8
Q:1/4=60
M:4/4
K:F
V:1 treble nm="Alto Recorder" snm="A. Rec."
V:2 treble nm="Tenor Recorder" snm="T. Rec."
V:3 treble 
V:4 bass nm="Viola da gamba" snm="Vla. d. g."
V:5 bass 
V:6 treble nm="Cembalo" snm="Hch."
V:7 treble 
V:8 bass 
V:9 bass 
V:1
"^Adagio" z8 | c2 f3 g (Te>f) | f2 a3 g/f/ e(f/g/) | f3 e/d/ e4 | z4 z2 c2- | cB/A/ (Bc) A2 z a | %6
 g3 (f/e/) fA d2- | dc c3 (B/A/) BA/G/ | GA (T^F>G) G2 z2 | z2 a3 (g/=f/) g2- | %10
 gf/e/ (fg/f/) e3 e | A d2 d Gg- g/f/e/d/ | cc' b3 a ag | Tg3 g f4 ||[Q:1/4=100]"^Allegro" z8 | %15
 z8 | z8 |!8va(! c'/(g/4f/4e/)g/ (c/c'/)=b/a/ b/d'/g/b/ c'/e'/g/c'/ | %18
 a/c'/f/c'/ d'/f'/a/d'/!8va)! =B/g/d/f/ e/c'/g/b/ | (a/c/)f (Tf>e) f2 z2 | z8 | %21
 c'/g/4f/4e/g/ (c/c'/)=b/a/ b/d'/g/b/ c'/c/e/g/ | a2 z a deTd>d | c/g/e/g/ a2 z/ f/d/f/ g2 | %24
 z/ c'/a/c'/ _b/(b/4a/4g/)b/ ag(Tg>f) | f/(c/4B/4A/)c/ (F/f/)e/d/ e/g/c/e/ f/a/c/f/ | %26
 d/f/B/d/ g/d/f/g/ e/(e/4d/4c/)e/ (^f/a/)g/f/ | g2 z2 z/ c/A/=F/ c/(c/4d/4e/)c/ | %28
 d/d/4c/4=B/d/ e/e/4=f/4g/e/ a/a/4g/4f/4g/4a/4b/4 c'/c/4_B/4A/4B/4c/4d/4 | %29
 e/(g/4f/4e/)g/ c/(c/4B/4A/)c/ d/(f/4e/4d/4e/4f/4g/4) a2 | %30
 z2 z/ (c'/4b/4a/)c'/ b/(d/4c/4B/4c/4d/4e/4 f/)(c/4B/4A/4B/4c/4d/4 | %31
 e/)(g/4f/4e/)g/ c/(c'/4b/4a/4g/4f/4e/4) d/f/e/f/ (Td>c) | %32
 c/(g/4f/4e/)g/ c/c/=B/A/ B/d/G/B/ c/g/e/c'/ | a/(a/4g/4f/)a/ (c/a/)g/f/ g/c/e/g/ a/(c/4_B/4A/)c/ | %34
 (F/f/)e/d/ e/g/c/e/ f2 z/ (f/4e/4d/)f/ | g2 z/ (b/4a/4g/)b/ e/a/e/g/ f/(f/4e/4d/4e/4f/4g/4) | %36
 a2 z f ef/g/ (Tf>e) | d/f/d/f/ a/g/4f/4e/a/ f/a/f/a/ b/d/B/d/ | %38
 G/e/c/e/ f2 z/ d'/b/d'/ g/b/4a/4g/b/ | a/c'/4b/4a/c'/ b/b/g/b/ a/a/4g/4f/a/ d/d/B/d/ | %40
 GAB>c A/c/4B/4A/c/ d/>c/d/e/ | fff>e !fermata!f2 z2 || %42
[M:3/2][Q:1/4=160]"^Affetuoso" z2 f2 a2 b2 c'2 ba | b4 b6 a2 | a4 c4 f4- | f4 f6 e2 | f4 A6 =B2 | %47
 c2 c2 e2 f2 g2 a_b | a4 d6 ef | e4 g6 a2 | _b12 | z4 a6 b2 | c'4 c8 | =B4 B6 c2 | d4 Td6 e2 | %55
 ^c4 z4 z4 | z4 a4 _b4 | b4 a8- | a4 Tg6- g2 | a2 (a2 e2) (g2 f2) (e2 | f2) (f2 ^c2) (=e2 d2) (c2 | %61
 d4) Td6 ^c2 | d2 (d2 A2) (=c2 _B2) (A2 | B4) T^F6 F2 | G2 (g2 d2) (=f2 e2) (d2 | e4) =B6 B2 | %66
 c4 Tc6 =B2 | c2 (c'2 g2) (_b2 a2) (g2 | a4) e6 e2 | f2 (c'2 g2) (b2 a2) (g2 | a2) b2 Tg6 f2 | %71
 f8 f4- | f4 Tf6 e2 | f12 |][M:4/4][Q:1/4=80]"^Allemande" c | AG/F/ c3 B/A/ B>c | AF z2 z d c>d | %77
 =BG/(A/ B/)(c/B/)(c/ d/)(e/d/)c/ c>B | (.c/.d/e/.f/.g/.a/._b/c'/) a(d'/c'/) (b/a/)(g/b/) | %79
 edTd>^c d d'2 (=c'/b/) | a/b/a/g/f/g/f/e/ d>d eG | (A/=B/)c (Tc>B) c2 z/ (c/e/d/) | eaTd->.d c3 :: %83
 e | e2 (f>.e) d3 d | ce f2 Tf3 e | fa_b g2 f/e/ (e3/2d/4e/4 | f)A d3 e/f/ Te>d | ^ca>gf/e/ fab>a | %89
 g/.e/.f/.g/.a/.b/.a/.b/ =c'a>ag/a/ | f/f/g/a/ Tg>g f2 z/ f/a/g/ | adTe>f .f3 :| z/8 | %93
[M:3/4][Q:1/4=120]"^Courante" z a | a3 bc'd' | b2 g3- .g | f3 efg | e3 e f2- | fd e3 f | %99
 f(c'/b/a)gfe | (dg) =B3 B | c2 Tc3 c | (d2 G2) g2 | f>e Td3 d | c(g/f/e)Gc=B | c4 :: z g | %107
 g3 f g2 | a2 f3 f | g3 f e2 | fe e3 d | defg ag/f/ | e/a/g/f/ Tg3 a | a ^c2 e Td>(c | d3) f_ba | %115
 (g2 a)=c"^>\"" f2- | fg"^>-" Tg3 f | f(c/B/A)F c(f/e/) | f4 :| z/8 | %120
[M:3/4]"^Sarabande" (a>b c'2) a2 | g3 (f g2) | (b>c' d'2) b2 | Ta3 (g a2) | (ag)(af)(Tb>a) | %125
 g2 (e>f g2) | c>d e2 (dc) | Tc3 =B c2 :: (g>f g2) a2 | g3 (f e2) | a>g f2 g>(f | Te3) d d2 | %132
 a>g a2 _b>a | g>(f g2) g>g | (fg)(ab)(=c'd') | Tg3 f f2 :|[K:F][M:3/4]"^Variatio" a2 a3 (a | %137
 g/)(c'/b/a/ g/f/e/d/ c/)(c'/b/a/) | b2 b3 (b | a/)(d'/c'/b/ a/g/f/e/) (d/e/d/e/) | %140
 (f/g/f/g/ a)A d>.d | c>(c' b/a/g/f/ e/)(g/f/g/) | a(c/d/ e/)(c/d/e/) (Ad/c/) | (=B3 c) c2 | %144
 e3 (e f2) | ec (g/f/e/d/ c/)(g/f/g/) | (a/g/f/e/ d/)(f/e/f/) (g/a/g/f/) | %147
 (e/a/g/f/) (e/g/f/e/) fd | (d/e/f/g/ a/)(f/g/a/ _b)g | (c/d/e/f/ g/)(e/f/g/) (a/g/f/e/) | %150
 (d/e/d/e/) (f/g/f/g/) (a/c'/b/a/) | g3 (g f2) :| z/8 |[M:6/8][Q:1/4=180]"^Gigue" f2 F AGF | %154
 cde fed | e2 (e g)fe | acf (f2 e) | fga def | =B2 B c3- | c=BA (B2 g) | g3- g3- | Tg2 (^f g)GA | %162
 =Bcd cde | e>(=fg) cfe | ddc =B2 B | cde dgf | edc =B2 c | cde d2 d | c2 (g a)gf | g2 e g3 :: %170
 c2 (g f)ed | e2- e f2 (g | c2) (a g2) (g | f2) (c' _b)ag | aba a2 g | aef ^c2 d | Aef gde | %177
 ^c2 c def | e2 e d2 a | gfe fef | g2 f g2 g | =c2 c' c'2 =b | c'ga _bag | a3- agf | g3- gcf | %185
 def f2 (e | f2) (c d)cB | (c2 A) c3 :| %188
V:2
 c2 f3 g (Te>f) | f2 Ta3 b (g>f) | f2 z2 z2 !>!gc'- | c'd' =b2 c'g a2 | _b3 a/g/ ac f(g/a/) | %5
 g3 g fA d2- | d(e/d/) T^c>c d2 f2- | f(e/d/) e2 d3 (=c/B/) | c3 (B/A/) Bd g2 | %9
 g(f/e/ (f)e/f/) d3 (e/d/) | ^c2 d3 (=c/=B/) c2- | (c_B/A/) B3 (c/d/) c>B | Aa g3 c (de/f/) | %13
 Tf3 e f4 || f/c/4B/4A/c/ F/f/e/d/ e/g/c/e/ f/a/c/f/ | d/f/B/f/ g/b/d/g/ e/g/c/g/ a/c/f/e/ | %16
 d/f/A/d/ =B/d/G/B/ ccTc>B | c2 z2 z4 | z8 | z4 f/(c/4_B/4A/)c/ (F/f/)e/d/ | %20
 e/g/c/e/ f/a/c/f/ d/f/B/f/ g/b/d/g/ | e>eT^f>f [Gdg]2 z g | =f/a/c/f/ d/f/A/d/ =Bcc>B | %23
 c2 z/ c/A/c/ d2 z/ _B/G/B/ | A/a/f/a/ (g/g/4f/4)e/g/ f(f/(g/) (e>)f) | f2 z2 z4 | %26
 z4 c'/g/4f/4e/g/ (c/c'/)=b/a/ | =b/d'/g/b/ c'/c/e/g/ a2 z/ a/g/a/ | %28
 ff Tg>g f2 z/ A/4G/4F/4G/4A/4=B/4 | c/(e/4d/4c/)e/ A/(a/4g/4f/)a/ d2 z/ c/4_B/4 A/4B/4c/4d/4 | %30
 e/g/4f/4 e/g/ a/a/4g/4f/a/ d/(b/4a/4)g/b/ a/a/4g/4 f/4g/4a/4b/4 | %31
 c'/c/ g/e/ a/a/4g/4f/4e/4d/4c/4 =B(c/d/) Tc>B | c2 z2 z4 | %33
 f/(c/4_B/4A/)c/ (F/f/)e/d/ e/g/c/e/ f/(a/4g/4f/)a/ | dgTg>g a/(c/4B/4A/)c/ d2 | %35
 z/ (b/4a/4g/)b/ e/(g/4f/4e/)g/ ^c2 z2 | z/ a/e/g/ f/f/4e/4d/4e/4f/4g/4 a/^c/d/e/ Td>c | %37
 d2 z2 z/ f/d/f/ g/f/4e/4d/g/ | e/g/e/g/ a/=c/4B/4A/c/ B/b/g/b/ Te>e | %39
 f/(a/4g/4f/)a/ d/g/e/g/ c/(c'/4b/4a/)c'/ f/b/g/b/ | ef Tf>e f/(a/4g/4f/)a/ b/(f/4e/4f/)g/ | %41
 (a/b/)(a/g/) g>g f2 z2 ||[M:3/2] z12 | z12 | z2 f2 (a2 b2) c'2 ba | b4 Tb6 b2 | a4 (Tc6 d2) | %47
 (e4 G4) c4- | c4 (c6 =B2) | c8 z4 | z4 (d6 e2) | f8 z4 | z4 (e6 ^f2) | g4 (d6 e2) | =f4 Tf6 e2 | %55
 e4 a6 g2 | f6 f2 e2 d2 | e8 e4 | d4 (d6 e2) | ^c8 z4 | z2 (a2 e2) (g2 f2) (e2 | f4) e6 e2 | %62
 d8 z4 | z2 (d'2 a2) (=c'2 _b2) (a2 | b4) T=b6 b2 | c'2 (g2 d2) (f2 e2) (d2 | e2) f2 Td6 d2 | %67
 c8 z4 | z2 (c'2 g2) (_b2 a2) (g2 | a4) Te6 e2 | f4 Tf6 e2 | f4 a4 g4- | g4 T[cg]6 g2 | f12 |] %74
[M:4/4] f | f2- f/a/g/f/ ef (Tf>e) | f(a/f/) c'(c/f/) dg (Tg>^f) | %77
 g(=B/c/) (d/e/)(d/e/) =f/(g/f/)(e/ d/)(g/f/)g/ | eG c3 (f/e/) (d/f/)(e/d/) | %79
 ^ca3/2 g/f/e/ f/g/d/f/ g>g | =cf/e/ d/e/d/c/ =B(A/G/) (c2 | %81
 c/)d/e/f/ (Te>d) c(g/f/) e/g/(c'/=b/) | c'/c/(d/e/) T=B>B c3 :: g | g2 a>g f(g/a/) (g>f) | %85
 (ec) z/ c'/_b/a/ b2- b/a/b/c'/ | a d2 e ^cd (Td>c) | (d/e/)(f/g/) a3 g/f/ Tg3/2f/4g/4 | %88
 aef^c df g/f/g/d/ | e/=c/d/e/ f/g/f/g/ ac' c/f/e/f/ | d/d/e/f/ Tf>(e f)A/G/ F/c/f/e/ | %91
 f(g/a/) Tg>f f3 :| z/8 |[M:3/4] z .f | f3 gab | g2 c'3 c'- | c'(b/a/) b3 b | b3 a a2- | ag Tg3 f | %99
 f(a/g/ f)edc | =B2 g3 g | g2 f3 f | (fg) e3 G | A=B/c/ Tc3 B | c3 CEG | [Ec]4 :: z e | Te3 d e2 | %108
 f2 d3 d | e3 d ^c2 | d2 Td3 ^c | d2- defg | ae d3 d | ^ce Ag Tf>(e | f2) _bagf | e2 f3 a | %116
 d(e/f/) f3 e | f3 FA=c | A4 :| z/8 |[M:3/4] !tenuto!f>g a2 f2 | Te3 (d e2) | (g>a b2) g2 | %123
 Tf3 (e f2) | (fe)(fd) (Tg>f) | e2 (c>d) e2 | f2 g2 a2 | Td3 c c2 :: (e>d e2) f2 | Te3 d c2 | %130
 (f>e d2) e>(d | (T^c3) d) d2 | f>e f2 g>f | (e>d e2) (f>e) | (de) (fg) a(g/f/) | (Te3 f) f2 :| %136
[K:F][M:3/4] z/ f/e/d/ =c/B/A/G/ F/f/e/d/ | e2 e3 ^f | g/g/f/_e/ d/c/B/A/ G/(g/f/=e/) | f2 Tf3 g | %140
 aA (d/e/d/e/) f/(g/f/)(g/ | e/)(c'/b/a/ g/f/e/d/ c/)(e/d/e/) | fa g/e/f/g/ cf/e/ | d3 c c2 | %144
 (g/f/e/d/ c/)(g/f/g/ a/)(f/g/a/) | g(e/d/) c(g/f/) e>e | f(a/g/) f(g/a/) b(e/d/) | T^c3 c d2 | %148
 (f/e/d/e/ f/)(d/e/f/ g)d | (e/d/=c/d/ e/)c/(d/e/ f)c | z2 (d/e/d/e/ f/)(a/g/f/) | Te3 e f2 :| %152
 z/8 |[M:6/8] z6 | z6 | c'2 (c e)dc | fga bag | abc' fga | d g2 gf(e | f3) fed | edc dc=B | %161
 c=BA B2 c | def efg | cc'_b aag | ffe d(gf) | edc =B2 B | cde d2 (e | A)=Bc Tc2 ((B | %168
 c2)) ((e f))ed | e2 c c3 :: z6 | g2 (c' _b)ag | agf f2 e | f2 (a g)fe | f2 e ded | ^c2 z aef | %176
 ^c2 d efg- | gTf>e fAd | Td2 ^c d2 z | z2 z .a2 d' | =c'ba bag | a2 g Tf>(ef) | eef gfe | %183
 f_Bc d3- | dcB cfa | fga Tg2 (g | f2) (A B)AG | (A2 F) F3 :| %188
V:3
 x8 | x8 | x8 | x8 | x8 | x8 | x8 | x8 | x8 | x8 | x8 | x8 | x8 | x8 || x8 | x8 | x8 | x8 | x8 | %19
 x8 | x8 | x8 | x6 G2 | x8 | x8 | A2 x6 | x8 | x8 | x2 c2 A2 x2 | x8 | x8 | x8 | c2 x6 | x8 | x8 | %35
 x8 | x8 | x8 | x8 | x8 | x8 | x8 ||[M:3/2] x12 | x12 | x12 | x12 | x12 | x12 | x12 | x12 | x12 | %51
 x12 | x12 | x12 | x12 | x12 | x12 | x12 | x12 | x12 | x12 | x12 | x12 | x12 | x12 | x12 | x12 | %67
 x12 | x12 | x12 | x12 | x12 | x12 | A12 |][M:4/4] x | x8 | x8 | x8 | x8 | x8 | x8 | x8 | x7 :: x | %84
 x8 | x8 | x8 | x8 | x8 | x8 | x8 | x7 :| |[M:3/4] x2 | x6 | x6 | x6 | x6 | x6 | x6 | x6 | x6 | %102
 x6 | x6 | x6 | x4 :: x2 | x6 | x6 | x6 | x6 | x6 | x6 | x6 | x6 | x6 | x6 | x6 | x4 :| | %120
[M:3/4] x6 | x6 | x6 | x6 | x6 | x6 | x6 | x6 :: x6 | x6 | x6 | x6 | x6 | x6 | x6 | x6 :| %136
[K:F][M:3/4] x6 | x6 | x6 | x6 | x6 | x6 | x6 | G4 z2 | x6 | x6 | x6 | x6 | x6 | x6 | x6 | x6 :| | %153
[M:6/8] x6 | x6 | x6 | x6 | x6 | x6 | x6 | x6 | x6 | x6 | x6 | x6 | x6 | x6 | x6 | x6 | x6 :: x6 | %171
 x6 | x6 | x6 | x6 | x6 | x6 | x6 | x6 | x6 | x6 | x6 | x6 | x6 | x6 | x6 | x6 | x6 :| %188
V:4
 F,G,A,B, C3 B, | A,3 B,/C/ DB, C2 | F,F,/E,/ D,C, =B,,2 C,2 | D,4 C,4 | D,2 E,2 F,4- | %5
 F,2 E,2 F,3 E,/D,/ | E,4 D,2 _B,,2 | A,,2 A,G, ^F,2 G,2 | A,4 G,2 B,G, | D3 C B,4 | A,4- A,3 G, | %11
 ^F,2 G,=F, E,4 | F,2 G,2 A,2 B,2 | A,4 F,4 || F,4 C2 A,2 | B,2 G,2 C2 F,2- | F,2 G,2 E,C,G,G,, | %17
 C,2 A,,2 G,,G, E,2 | F,2 D,2 G,2 CE, | F,A,,_B,,C, F,,2 F,2 | C,2 A,,2 B,,2 G,,2 | %21
 C,C A,2 G,2 E,2 | =F,4 G,2 G,,2 | C,C A,2 B,2 G,2 | F,2 G,2 A,B, CC, | F,2 D,2 C,2 A,,2 | %26
 B,,2 =B,,2 C,C A,2 | D2 E,2 =F,3 E, | D,2 C,2 F,,2 F,2 | E,2 F,2 _B,,B, A,2 | G,2 F,2 G,2 F,2 | %31
 E,2 F,2 G,F, G,2 | C4 G,2 E,2 | F,4 C2 A,2 | _B,2 C2 F,2 B,2 | G,4 A,2 D2 | ^C2 D>D, A,G,A,A,, | %37
 D,2 ^C,2 D,2 _B,,2 | =C,2 A,,2 G,,4 | F,,2 G,,2 A,,2 B,,2 | C,4 F,2 B,2 | %41
 A,B, CC, !fermata!F,2 z2 ||[M:3/2] F,12- | F,8 E,4 | F,8 A,4 | G,4 C8 | F,12 | E,12 | F,4 G,8 | %49
 C,12 | G,12 | F,4 F,6 G,2 | A,12 | G,12 | =F,4 G,8 | A,12 | D12 | C12 | B,8 B,4 | A,12 | A,12 | %61
 A,12 | D,12 | D,12 | G,12 | G,12 | F,4 G,8 | C,12 | C,12 | A,4 G,4 C4 | z4 C,8 | D,8 B,,4 | %72
 z4 C,8 | !fermata!F,,12 |][M:4/4] C | [F,A,]4 G,4 | A,4 _B,2 A,2 | G,4 =F,2 G,2 | %78
 C,2 E,2 F,2 G,2 | A,4 D,2 E,2 | F,4- F,2 E,2 | F,2 G,2 C,2 C2 | CF, G,2 C,3 :: C | C4- C2 _B,2- | %85
 B,2 A,2 G,4 | F,2 G,2 A,4 | D3 =C D4 | A,3 A,, D,D B,2 | CB, A,>G, F,2 A,,2 | B,,2 C,2 F,,2 F,2 | %91
 D,B,, C,2 A,3 :| z/8 |[M:3/4] z F, | F,4 F2- | F2 E4 | D6 | C4 D2 | B,2 C4 | F,6 | G,6 | A,6 | %102
 =B,2 C2 E,2 | F,2 G,2 G,,2 | C,6- | C,4 :: z C | C4 C2 | A,2 _B,4 | G,6 | F,G, A,2 A,,2 | D,4 D2 | %112
 =C2 B,4 | A,6 | D2 B,4 | =C2 A,4 | B,2 C2 C,2 | F,6- | F,4 :| z/8 |[M:3/4] F,6 | C6 | G,6 | D6 | %124
 D4 B,2 | (C4 C)B, | A,2 E,2 F,2 | G,4 C,2 :: C4 F,2 | C4 C2 | A,2 _B,2 G,2 | A,4 D,2 | D3 =C B,2 | %133
 C3 B, A,2 | B,4 A,B, | C2 C,2 F,2 :|[K:F][M:3/4] F,6 | C6 | G,6 | D6 | D4 B,2 | F,6 | %142
 A,2 E,2 F,2 | G,2 G,,2 C,2 | C4 F,2 | C6 | A,2 _B,2 G,2 | A,4 D,2 | D3 =C B,2 | C3 B, A,2 | %150
 B,4 A,B, | C4 F,2 :| z/8 |[M:6/8] F,3 F3 | E3 D3 | C3 C3 | A,3 G,3 | F,3 F,3 | G,3 A,3 | D,3 G,3 | %160
 C,2 C =B,A,G, | A,3 G,3 | G,3 C,3 | E,3 F,3 | F,3 G,3 | G,3 G,3 | G,3 G,F,E, | F,3 G,3 | C,3 C,3 | %169
 C,3- C,3 :: C3- C2 =B, | C3 D2 E | F2 A, _B,2 C | F,3 G,3 | F,G,A, B,3 | A,3- A,3- | A,3 G,3 | %177
 A,3 D,2 D, | G,2 A, D, D2- | D2 ^C D2 D | E2 F- F2 E | F2 E D3 | C3 _B,2 C | F,G,A, B,3- | %184
 B,A,G, A,2 F, | B,2 A, B,2 C | z2 C D2 D | C3- C3 :| %188
V:5
 x8 | x8 | x8 | x8 | x8 | x8 | x8 | x8 | x8 | x8 | x8 | x8 | x8 | x8 || x8 | x8 | x8 | x8 | x8 | %19
 x8 | x8 | x8 | x8 | x8 | x8 | x8 | x8 | G,2 x6 | x8 | x8 | x8 | x8 | x8 | x8 | x8 | x8 | x8 | x8 | %38
 x8 | x8 | x8 | x8 ||[M:3/2] x12 | x12 | x12 | x12 | x12 | x12 | x12 | x12 | x12 | x12 | x12 | %53
 x12 | x12 | x12 | x12 | x12 | x12 | x12 | x12 | x12 | x12 | x12 | x12 | x12 | x12 | x12 | x12 | %69
 C,12 | x12 | x12 | x12 | x12 |][M:4/4] F, | x8 | x8 | x8 | x8 | x8 | x8 | x8 | x7 :: x | x8 | x8 | %86
 x8 | x8 | x8 | x8 | x8 | x4 F,3 :| |[M:3/4] x2 | x6 | x6 | x6 | x6 | x6 | x6 | x6 | x6 | x6 | x6 | %104
 x6 | x4 :: x2 | x6 | x6 | x6 | x6 | x6 | x6 | x6 | x6 | x6 | x6 | x6 | x4 :| |[M:3/4] x6 | x6 | %122
 x6 | x6 | x6 | x6 | x6 | x6 :: x6 | x6 | x6 | x6 | x6 | x6 | x6 | x6 :|[K:F][M:3/4] x6 | x6 | x6 | %139
 x6 | x6 | x6 | x6 | x6 | x6 | x6 | x6 | x6 | x6 | x6 | x6 | x6 :| |[M:6/8] x6 | x6 | x6 | x6 | %157
 x6 | x6 | x6 | x6 | x6 | x6 | x6 | x6 | x6 | x6 | x6 | x6 | x6 :: x6 | x6 | x6 | x6 | x6 | x6 | %176
 x6 | x6 | x6 | x6 | x6 | x6 | x6 | x6 | x6 | x6 | x6 | x6 :| %188
V:6
 ABcd Gc- c2- | c2 A3 G G2 | A4 d2 c2- | c2 =B2 c2 A2 | _B4 A2 F2 | G4 A3 G/F/ | G4 F4 | A6 B2 | %8
 =c3 d/c/ B4 | A6 G2- | G2 F2 A4- | A2 BA G4 | A2 B3 A2 G- | G4 A4 || A2- A2 E2 F2- | F4 E2 F2 | %16
 D4 cE D2 | G2 c2 =B2 (c2 | c2) d2 =B2 c2 | c2 G2 F2 c2 | c4 .d4 | G2 c2 =B2 (c2 | c2) d3 c2 =B | %23
 c4 d3 e | f2 B2 AG- G2 | A2 =B2 c4 | d4 e2 c2 | =B2 c6 | =B2 c_B A=B cB | c4 d2 c2 | %30
 _B2 A2 B2 A2 | G c3 =BA cB | c4 =B2 c2- | c8 | G4 F2 d2 | d2 e4 f2 | e2 f2 e f2 e | d2 A4 G2 | %38
 G2 c2 _B4 | A2 B2 c2 dG | GA B2 A2 d2 | c f2 e f4 ||[M:3/2] A8 F4 | G4 G8 | A4 c4 F4 | B4 B8 | %46
 [FA-]4 A8 | c12- | c8 =B4 | c4 c8 | d4 B8 | A4 A8- | A4 E4 F4 | G4 D4 G4 | A4 B8 | E4 E4 A4- | %56
 A4 F4 B4- | B4 =c4 A4- | A4 G8 | ^C4 A4 G4 | F4 E4 G4 | F4 E8 | D4 ^F4- F4 | G4 ^F8 | G4 G4 =F4 | %65
 E4 D4 G4 | A4 G8- | [EG]12 | A4 G8 | F4 E8 | F4 F4 E4 | F8 G4- | G4 G8 | !fermata!A12 |] %74
[M:4/4] A | F2 f4 e2 | f4 d2 c2 | =B4 d4 | c2 c3 d2 (e | e)feA d2 =c2 | A4 =B2 c2- | c3 =B c2 c2 | %82
 ed- d2 c3 :: c | G2 A2 F2 G2 | E2 F2 _B4 | A2 B2 GFEA | Fd A3 GD(E | E2) AG A2 Gd | %89
 =c2- c>B A2 c2 | d2 G2 A4- | AG G2 F3 :| z/8 |[M:3/4] z f | f4 c2 | B2 d2 c2 | f6 | e4 A2- | %98
 A2 [EG]4 | A2- A4 | =B6 | c6 | d2 .e2 c2- | c4 =B2 | c6- | c4 :: z e | G4 G2 | f2 [_Bd]4 | %109
 [Bd]4 ^c2 | d4 ^c2 | d4 A2- | A2 G4 | !tenuto!A6 | A2 B2 G2- | G2 c4 | d2 G4 | A6- | A4 :| z/8 | %120
[M:3/4] c>B A2 c2 | G6 | d>c B2 d2 | A6 | FA d3 d | EG c4 | c c2 c2 c- | c3 =B c2 :: G>A G2 A2 | %129
 G3 A G2 | c2 d4 | ^c4 d2 | FA d3 d | EG =c3 c | dc/B/ AG FG | G4 A2 :|[K:F][M:3/4] A>B c2 A2 | %137
 [EG]3 [DF] G2 | B>c d2 B2 | A3 G A2 | AGAF B2 | G2 E>F G2 | c>d e2 dc | d4 c2 | e>d e2 f2 | %145
 e3 d c2 | c2 d4 | ^c4 d2 | A>G A2 B>A | G>F G2 A>G | FGAB cG | G4 A2 :| z/8 |[M:6/8] c6- | %154
 c3- c2 =B | c3 e3 | f3- f2 e | f3 d3- | d3 (c3 | c3) =B3 | c3 d3 | c2 d =B3 | [=Bd]2 =f e3 | c6 | %164
 d6 | e3 f3 | e3 d2 c- | c3- c2 =B | c3 A3 | G3- G3 :: e3 d2 z | c3 _B3 | A2 c G3 | FGA B3 | %174
 ABc d3 | e2 f e2 f | e2 f e3- | e3 f2 d | e3 d3 | G2 A z2 d | =c3 B2 c | A2 c c2 =B | c2 A G3 | %183
 ABc d3 | GAB c3 | d c2 G3 | A2 A B2 B | AFc A3 :| %188
V:7
 F6 E2 | F6- FE | F4- F G2 E | F4 E4 | F2 C6 | B,2 C4 D2- | D2 ^C2 [DF-]4 | FE =C2 D4 | G^F D6 | %9
 G2 =FE .D2 E2- | E2 D4 =C2 | D6 C2- | C2 E3 F2 F- | F2 E2 F4 || F2 c6 | d2 B4 A2- | A2 =B2 G4- | %17
 E2 ^F2 G4 | A2 =F4 EG | A F2 E x2 A2 | E2 F2- F2 B2 | E2 ^F2 G4 | A4 =BE D2 | E2 =F4 _B2 | %24
 A2 DE F3 E | F4 E2 F2 | F2 G4 ^F2 | z2 G2 A3 G | =F2 E2 FG A[G=B] | G2 A3 G2 F- | FE F2 DE F2 | %31
 G2 AD- D4 | E4 x4 | A2 F2 E2 F2- | F2 E2 F4 | B4 ^c2 A2- | A4 ^c d2 G | F2 E2 F4 | E2 F4 E2 | F8 | %40
 EF- FE F4 | Fd G2 A4 ||[M:3/2] F4 C4- C4 | D8 C4 | C8 x4 | F4 F4 E4 | F4 c4 d4 | G4 G4 C4 | %48
 A4 D8 | E4 E8 | _B4 D4 E4 | C4 F4 D4 | C8 x4 | =B,12 | D8 x4 | C8 x4 | =F12 | E8 x4 | D8 E4- | %59
 E4- E8 | D4 ^C4 x4 | D8 ^C4 | D8 =C4 | B,4 A,4 C4 | B,4 =B,8 | C4 =B,8 | D2 C2 C4 =B,4 | x12 | %68
 F4 B,4 C4 | A,4 G,4 C4 | D4 G,4 z4 | A,8 D4- | D4 F4 E4 | C12 |][M:4/4] x | x8 | c4 F G2 ^F | %77
 x4 A2 c=B | E2 G2 A2 B2 | [^ce]d G2 F2 G2 | F4 G2- G2 | D2 ED E2 E2 | GA/c/ =BF E3 :: E | %84
 E2 F2 D2- D2 | C2- C2 D2 E2 | F2 DG E D2 C | F2- FE x4 | E2 x2 F3 G | E2 F2- F2 F2 | F3 E F4- | %91
 F2 E2 F3 :| x/4 |[M:3/4] x A | A4 A2 | G6 | A2 B4 | c4 F2- | F2 x4 | F2 d2 c2 | x6 | G2 F2 A2 | %102
 x6 | A2 D4 | x6 | E4 :: x G | x4 e2 | c2 x4 | x4 A2- | AB E4 | F4 F2 | E2 D2 E2 | C6 | F2 x4 | %115
 E2 F4- | F4 E2 | C6- | C4 :| x/4 |[M:3/4] A>G F2 A2 | E6 | B>A G2 B2 | F6 | F3 F G2 | E3 E G2 | %126
 F2 G2 A2 | DF G2 E2 :: E>F E2 F2 | E3 F E2 | F2- F2 E2- | E2 G2 F2 | F3 F G2 | E3 E F2 | F4 F2 | %135
 E4 F2 :|[K:F][M:3/4] F>G A2 F2 | x3 F E2 | G>A B2 G2 | F3 E F2 | F4 D2 | E2 E>D E2 | %142
 [Ac]>=B c2 A2 | c2 =B2 E2 | G>F G2 A2 | G3 F E2 | F4 _B2 | E2 G2 F2 | F>E F2 G>F | %149
 E[DF]/ x/ E2 F>E | F2 x2 F2 | E4 F2 :| x/4 |[M:6/8] [Ac]6 | G3 F3 | E3 G3 | c3 _B3 | A6 | =B3 E3 | %159
 F3- F3 | E2 x G3- | G ^F2 G3 | =B3 G3 | G3 (A3 | A3) =B3- | B3 d3 | c3 =B2 G | A3 D3 | E3 .F3 | %169
 E3- E3 :: G3 F2 G | E3 F2 G | A2 F F2 E | F3- F2 E | F3- F3 | ^c2 d c2 d | ^c2 d _B3 | ^c3 A3 | %178
 B2 ^c FGA | E3 F3 | G2 A G2 x | x2 G F3 | x EF .F2 E | F3- F3 | E3 GFA | FEF F2 E | F2 x4 | x6 :| %188
V:8
 F,G,A,B, C3 B, | A,3 B,/C/ DB, C2 | F,F,/E,/ D,C, =B,,2 C,2 | D,4 C,4 | D,2 E,2 F,4- | %5
 F,2 E,2 F,3 E,/D,/ | E,4 D,2 _B,,2 | A,,2 A,G, ^F,2 G,2 | A,4 G,2 B,G, | D3 C B,4 | A,4- A,3 G, | %11
 ^F,2 G,=F, E,4 | F,2 G,2 A,2 B,2 | A,4 F,4 || F,4 C2 A,2 | B,2 G,2 C2 F,2- | F,2 G,2 E,C,G,G,, | %17
 C,2 A,,2 G,,G, E,2 | F,2 D,2 G,2 CE, | F,A,,_B,,C, F,,2 F,2 | C,2 A,,2 B,,2 G,,2 | %21
 C,C A,2 G,2 E,2 | =F,4 G,2 G,,2 | C,C A,2 B,2 G,2 | F,2 G,2 A,B, CC, | F,2 D,2 C,2 A,,2 | %26
 B,,2 =B,,2 C,C A,2 | D2 E,2 =F,3 E, | D,2 C,2 F,,2 F,2 | E,2 F,2 _B,,B, A,2 | G,2 F,2 G,2 F,2 | %31
 E,2 F,2 G,F, G,2 | C4 G,2 E,2 | F,4 C2 A,2 | _B,2 C2 F,2 B,2 | G,4 A,2 D2 | ^C2 D>D, A,G,A,A,, | %37
 D,2 ^C,2 D,2 _B,,2 | =C,2 A,,2 G,,4 | F,,2 G,,2 A,,2 B,,2 | C,4 F,2 B,2 | %41
 A,B, CC, !fermata!F,2 z2 ||[M:3/2] F,12- | F,8 E,4 | F,8 A,4 | G,4 C8 | F,12 | E,12 | F,4 G,8 | %49
 C,12 | G,12 | F,4 F,6 G,2 | A,12 | G,12 | =F,4 G,8 | A,12 | D12 | C12 | B,8 B,4 | A,12 | A,12 | %61
 A,12 | D,12 | D,12 | G,12 | G,12 | F,4 G,8 | C,12 | C,12 | C,12 | z4 C,8 | D,8 B,,4 | z4 C,8 | %73
 !fermata!F,,12 |][M:4/4] C | [F,A,]4 G,4 | A,4 _B,2 A,2 | G,4 =F,2 G,2 | C,2 E,2 F,2 G,2 | %79
 A,4 D,2 E,2 | F,4- F,2 E,2 | F,2 G,2 C,2 C2 | CF, G,2 C,3 :: C | C4- C2 _B,2- | B,2 A,2 G,4 | %86
 F,2 G,2 A,4 | D3 =C D4 | A,3 A,, D,D B,2 | CB, A,>G, F,2 A,,2 | B,,2 C,2 F,,2 F,2 | %91
 D,B,, C,2 A,3 :| z/8 |[M:3/4] z F, | F,4 F2- | F2 E4 | D6 | C4 D2 | B,2 C4 | F,6 | G,6 | A,6 | %102
 =B,2 C2 E,2 | F,2 G,2 G,,2 | C,6- | C,4 :: z C | C4 C2 | A,2 _B,4 | G,6 | F,G, A,2 A,,2 | D,4 D2 | %112
 =C2 B,4 | A,6 | D2 B,4 | =C2 A,4 | B,2 C2 C,2 | F,6- | F,4 :| z/8 |[M:3/4] F,6 | C6 | G,6 | D6 | %124
 D4 B,2 | (C4 C)B, | A,2 E,2 F,2 | G,4 C,2 :: C4 F,2 | C4 C2 | A,2 _B,2 G,2 | A,4 D,2 | D3 =C B,2 | %133
 C3 B, A,2 | B,4 A,B, | C2 C,2 F,2 :|[K:F][M:3/4] F,6 | C6 | G,6 | D6 | D4 B,2 | F,6 | %142
 A,2 E,2 F,2 | G,2 G,,2 C,2 | C4 F,2 | C6 | A,2 _B,2 G,2 | A,4 D,2 | D3 =C B,2 | C3 B, A,2 | %150
 B,4 A,B, | C4 F,2 :| z/8 |[M:6/8] F,3 F3 | E3 D3 | C3 C3 | A,3 G,3 | F,3 F,3 | G,3 A,3 | D,3 G,3 | %160
 C,2 C =B,A,G, | A,3 G,3 | G,3 C,3 | E,3 F,3 | F,3 G,3 | G,3 G,3 | G,3 G,F,E, | F,3 G,3 | C,3 C,3 | %169
 C,3- C,3 :: C3- C2 =B, | C3 D2 E | F2 A, _B,2 C | F,3 G,3 | F,G,A, B,3 | A,3- (A,3 | A,3) G,3 | %177
 A,3 D,2 D, | G,2 A, D, D2- | D2 ^C D2 D | E2 F- F2 E | F2 E D3 | C3 _B,2 C | F,G,A, B,3- | %184
 B,A,G, A,2 F, | B,2 A, B,2 C | z2 C D2 D | C3- C3 :| %188
V:9
 x8 | x8 | x8 | x8 | x8 | x8 | x8 | x8 | x8 | x8 | x8 | x8 | x8 | x8 || x8 | x8 | x8 | x8 | x8 | %19
 x8 | x8 | x8 | x8 | x8 | x8 | x8 | x8 | G,2 x6 | x8 | x8 | x8 | x8 | x8 | x8 | x8 | x8 | x8 | x8 | %38
 x8 | x8 | x8 | x8 ||[M:3/2] x12 | x12 | x12 | x12 | x12 | x12 | x12 | x12 | x12 | x12 | x12 | %53
 x12 | x12 | x12 | x12 | x12 | x12 | x12 | x12 | x12 | x12 | x12 | x12 | x12 | x12 | x12 | x12 | %69
 x12 | x12 | x12 | x12 | x12 |][M:4/4] F, | x8 | x8 | x8 | x8 | x8 | x8 | x8 | x7 :: x | x8 | x8 | %86
 x8 | x4 B,4 | x8 | x8 | x8 | x4 F,3 :| x/4 |[M:3/4] x2 | x6 | x6 | x6 | x6 | x6 | x6 | x6 | x6 | %102
 x6 | x6 | x6 | x4 :: x2 | x6 | x6 | x6 | x6 | x6 | x6 | x6 | x6 | x6 | x6 | x6 | x4 :| x/4 | %120
[M:3/4] x6 | x6 | x6 | x6 | x6 | x6 | x6 | x6 :: x6 | x6 | x6 | x6 | x6 | x6 | x6 | x6 :| %136
[K:F][M:3/4] x6 | x6 | x6 | x6 | x6 | x6 | x6 | x6 | x6 | x6 | x6 | x6 | x6 | x6 | x6 | x6 :| x/4 | %153
[M:6/8] x6 | x6 | x6 | x6 | x6 | x6 | x6 | x6 | x6 | x6 | x6 | x6 | x6 | x6 | x6 | x6 | x6 :: x6 | %171
 x6 | x6 | x6 | x6 | x6 | x6 | x6 | x6 | x6 | x6 | x6 | x6 | x6 | x6 | x6 | F,3 F,3 | F,3- F,3 :| %188

